X: 127
T: 127. Dies sind die heil'gen zehn Gebot
N: Derived from chor127.krn
C: Johann Sebastian Bach
%%abc-version 2.0
%%abcx-abcm2ps-target-version 5.9.1 (29 Sep 2008)
%%abc-creator hum2abc beta
%%abcx-conversion-date 2019/03/11 17:28:18
%%abc-edited-by Craig Stuart Sapp
%%humdrum-veritas 2666833572
%%humdrum-veritas-data 2442832015
%%
%%barnumbers 0
L: 1/4
M: C
%%staves [1 2 3 4]
V: 1 clef=treble
V: 2 clef=treble
V: 3 clef=treble-8
V: 4 clef=bass
K: C
[V:1] G [I:setbarnb 1]| 
[V:2] D | 
[V:3] B | 
[V:4] G,/F,/ | 
[V:1] GGGG | 
[V:2] EFEE | 
[V:3] cddc | 
[V:4] E,/D,/C,/B,,/ C,/D,/E,/F,/ | 
[V:1] G/A/B!fermata!cc | 
[V:2] D3/E//F//!fermata!EF/G/ | 
[V:3] B/A/G!fermata!GA/c/ | 
[V:4] G,G,,!fermata!C,F,/E,/ | 
[V:1] ddcG | 
[V:2] A/G/FF3/E/ | 
[V:3] fA/B/cc | 
[V:4] D,/E,/F,/G,/ A,/B,/C | 
[V:1] G/A/B!fermata!cc | 
[V:2] DG/F/!fermata!EF | 
[V:3] B/A/G!fermata!GA | 
[V:4] G,/F,/ E,/D,/!fermata!C,F,/E,/ | 
[V:1] ddcG | 
[V:2] FFFE | 
[V:3] AdGc/_B/ | 
[V:4] D,/C,B,,/ C,/D,/E,/D,/ | 
[V:1] AG!fermata!FG | 
[V:2] E/F/E!fermata!DE | 
[V:3] A_B/A/!fermata!Ac | 
[V:4] ^C,/D,C,/!fermata!D,=C,/B,,/ | 
[V:1] A=B!fermata!c2 | 
[V:2] FF/E/!fermata!E2 | 
[V:3] c/d/d!fermata!c2 | 
[V:4] A,,/A,^G,/!fermata!A,2 | 
[V:1] _B/A/ G/A/!fermata!BA | 
[V:2] ^FG/D/!fermata!D=F | 
[V:3] d/c/ _B/A/!fermata!GA | 
[V:4] D,E,/^F,/!fermata!G,D,/C,/ | 
[V:1] GG!fermata!G2 |]  
[V:2] FE!fermata!D2 |]  
[V:3] d3/c/- c/=B//A//!fermata!B |]  
[V:4] =B,,/G,,/C,!fermata!G,,2 |]  



